48x48/mimetypes/x-package-repository.svg

<svg xmlns="http://www.w3.org/2000/svg" width="48" height="48" version="1">
 <rect style="opacity:0.2" width="40" height="40" x="-45" y="-44" rx="2" ry="2" transform="matrix(0,-1,-1,0,0,0)"/>
 <rect style="fill:#d64141" width="40" height="40" x="-44" y="-44" rx="2" ry="2" transform="matrix(0,-1,-1,0,0,0)"/>
 <rect style="fill:#17191e" width="32" height="32" x="-40" y="-40" rx="1.6" ry="1.6" transform="matrix(0,-1,-1,0,0,0)"/>
 <rect style="opacity:0.2" width="24" height="24" x="-37" y="-36" rx="1.2" ry="1.2" transform="matrix(0,-1,-1,0,0,0)"/>
 <rect style="fill:#dfa46d" width="24" height="24" x="-36" y="-36" rx="1.2" ry="1.2" transform="matrix(0,-1,-1,0,0,0)"/>
 <path style="opacity:0.3" d="M 22 12 L 22 22 L 12 22 L 12 26 L 22 26 L 22 36 L 26 36 L 26 26 L 36 26 L 36 22 L 26 22 L 26 12 L 22 12 z"/>
 <path style="fill:#f4f4f7;opacity:0.2" d="M 6 4 C 4.892 4 4 4.892 4 6 L 4 7 C 4 5.892 4.892 5 6 5 L 42 5 C 43.108 5 44 5.892 44 7 L 44 6 C 44 4.892 43.108 4 42 4 L 6 4 z"/>
 <path style="fill:#f4f4f7;opacity:0.2" d="M 13.199219 12 C 12.534419 12 12 12.534419 12 13.199219 L 12 14.199219 C 12 13.534419 12.534419 13 13.199219 13 L 34.800781 13 C 35.465581 13 36 13.534419 36 14.199219 L 36 13.199219 C 36 12.534419 35.465581 12 34.800781 12 L 13.199219 12 z"/>
 <path style="opacity:0.1;fill:#f4f4f7" d="M 8 38.400391 L 8 39.400391 C 8 40.286791 8.7132094 41 9.5996094 41 L 38.400391 41 C 39.286791 41 40 40.286791 40 39.400391 L 40 38.400391 C 40 39.286791 39.286791 40 38.400391 40 L 9.5996094 40 C 8.7132094 40 8 39.286791 8 38.400391 z"/>
 <path style="opacity:0.2" d="M 9.5996094 8 C 8.7132094 8 8 8.7132094 8 9.5996094 L 8 10.599609 C 8 9.7132094 8.7132094 9 9.5996094 9 L 38.400391 9 C 39.286791 9 40 9.7132094 40 10.599609 L 40 9.5996094 C 40 8.7132094 39.286791 8 38.400391 8 L 9.5996094 8 z"/>
</svg>

<svg xmlns="http://www.w3.org/2000/svg" width="48" height="48" version="1"><rect style="opacity:.2" width="40" height="40" x="-45" y="-44" rx="2" ry="2" transform="matrix(0 -1 -1 0 0 0)"/><rect style="fill:#d64141" width="40" height="40" x="-44" y="-44" rx="2" ry="2" transform="matrix(0 -1 -1 0 0 0)"/><rect style="fill:#17191e" width="32" height="32" x="-40" y="-40" rx="1.6" ry="1.6" transform="matrix(0 -1 -1 0 0 0)"/><rect style="opacity:.2" width="24" height="24" x="-37" y="-36" rx="1.2" ry="1.2" transform="matrix(0 -1 -1 0 0 0)"/><rect style="fill:#dfa46d" width="24" height="24" x="-36" y="-36" rx="1.2" ry="1.2" transform="matrix(0 -1 -1 0 0 0)"/><path style="opacity:.3" d="M22 12v10H12v4h10v10h4V26h10v-4H26V12h-4z"/><path style="fill:#f4f4f7;opacity:.2" d="M6 4c-1.108 0-2 .892-2 2v1c0-1.108.892-2 2-2h36c1.108 0 2 .892 2 2V6c0-1.108-.892-2-2-2H6zM13.2 12c-.666 0-1.2.534-1.2 1.2v1c0-.666.534-1.2 1.2-1.2h21.6c.666 0 1.2.534 1.2 1.2v-1c0-.666-.534-1.2-1.2-1.2H13.2z"/><path style="opacity:.1;fill:#f4f4f7" d="M8 38.4v1c0 .887.713 1.6 1.6 1.6h28.8c.887 0 1.6-.713 1.6-1.6v-1c0 .887-.713 1.6-1.6 1.6H9.6c-.887 0-1.6-.713-1.6-1.6z"/><path style="opacity:.2" d="M9.6 8C8.713 8 8 8.713 8 9.6v1C8 9.713 8.713 9 9.6 9h28.8c.887 0 1.6.713 1.6 1.6v-1c0-.887-.713-1.6-1.6-1.6H9.6z"/></svg>
